sun.svg

<?xml version="1.0" encoding="UTF-8" standalone="no"?>
<!-- Created with Inkscape (http://www.inkscape.org/) -->

<svg
   width="400"
   height="400"
   viewBox="0 0 105.83333 105.83333"
   version="1.1"
   id="svg1"
   xml:space="preserve"
   inkscape:version="1.4.2 (ebf0e940, 2025-05-08)"
   sodipodi:docname="sun.svg"
   xmlns:inkscape="http://www.inkscape.org/namespaces/inkscape"
   xmlns:sodipodi="http://sodipodi.sourceforge.net/DTD/sodipodi-0.dtd"
   xmlns="http://www.w3.org/2000/svg"
   xmlns:svg="http://www.w3.org/2000/svg"><sodipodi:namedview
     id="namedview1"
     pagecolor="#ff0000"
     bordercolor="#eeeeee"
     borderopacity="1"
     inkscape:showpageshadow="0"
     inkscape:pageopacity="0"
     inkscape:pagecheckerboard="0"
     inkscape:deskcolor="#505050"
     inkscape:document-units="mm"
     inkscape:zoom="0.36740995"
     inkscape:cx="91.178804"
     inkscape:cy="176.9141"
     inkscape:window-width="1328"
     inkscape:window-height="717"
     inkscape:window-x="1125"
     inkscape:window-y="25"
     inkscape:window-maximized="0"
     inkscape:current-layer="layer1" /><defs
     id="defs1"><inkscape:path-effect
       effect="mirror_symmetry"
       start_point="13.213449,-0.19161031"
       end_point="13.213449,23.486124"
       center_point="13.213449,11.647257"
       id="path-effect10"
       is_visible="true"
       lpeversion="1.2"
       lpesatellites="#path11"
       mode="vertical"
       discard_orig_path="false"
       fuse_paths="false"
       oposite_fuse="false"
       split_items="true"
       split_open="false"
       link_styles="false" /></defs><g
     inkscape:label="Layer 1"
     inkscape:groupmode="layer"
     id="layer1"><path
       id="path11"
       style="fill:#ffffff;fill-opacity:1;fill-rule:nonzero;stroke-width:0.264583"
       d="M 12.800636,0.96027215 11.867877,5.2840392 A 7.4370861,7.4370861 0 0 0 10.630743,5.5486226 L 9.3052424,3.9104797 9.3858576,6.0555684 A 7.4370861,7.4370861 0 0 0 8.5678197,6.547528 L 4.5262059,4.3879699 6.5658747,8.6083841 A 7.4370861,7.4370861 0 0 0 6.2361791,9.1664896 L 4.1406998,8.9458312 5.7142471,10.40569 A 7.4370861,7.4370861 0 0 0 5.4124568,11.809739 L 1.0985082,12.6624 5.4222753,13.59516 a 7.4370861,7.4370861 0 0 0 0.2645833,1.237134 l -1.6381429,1.3255 2.1450887,-0.08061 a 7.4370861,7.4370861 0 0 0 0.4919597,0.818038 l -2.1595582,4.041614 4.2204143,-2.039669 a 7.4370861,7.4370861 0 0 0 0.5581054,0.329695 l -0.2206583,2.09548 1.4598587,-1.573548 a 7.4370861,7.4370861 0 0 0 1.404049,0.301791 l 0.852661,4.313948 0.93276,-4.323767 a 7.4370861,7.4370861 0 0 0 1.237134,-0.264583 l 1.3255,1.638143 -0.08061,-2.145089 a 7.4370861,7.4370861 0 0 0 0.818038,-0.49196 l 4.041614,2.159559 -2.039669,-4.220415 a 7.4370861,7.4370861 0 0 0 0.329695,-0.558105 l 2.09548,0.220658 -1.573548,-1.459859 a 7.4370861,7.4370861 0 0 0 0.301791,-1.404049 L 24.502764,12.6624 20.178997,11.729641 a 7.4370861,7.4370861 0 0 0 -0.264583,-1.237134 l 1.638143,-1.3255006 -2.145089,0.080615 A 7.4370861,7.4370861 0 0 0 18.915509,8.4295837 L 21.075067,4.3879699 16.854652,6.4276387 A 7.4370861,7.4370861 0 0 0 16.296547,6.0979431 L 16.517205,4.0024637 15.057346,5.5760111 A 7.4370861,7.4370861 0 0 0 13.653297,5.2742207 Z m 0,5.20485025 A 6.4970827,6.4970827 0 0 1 19.297914,12.6624 6.4970827,6.4970827 0 0 1 12.800636,19.159678 6.4970827,6.4970827 0 0 1 6.3033585,12.6624 6.4970827,6.4970827 0 0 1 12.800636,6.1651224 Z"
       transform="matrix(4,0,0,4,1.7141223,2.2670564)" /><circle
       style="fill:#ffffff;fill-opacity:1;fill-rule:nonzero;stroke-width:1.05833"
       id="circle14"
       cx="52.916668"
       cy="52.91666"
       r="23.665968" /></g></svg>

<?xml version="1.0" encoding="UTF-8" standalone="no"?>
<!-- Created with Inkscape (http://www.inkscape.org/) -->

<svg
   width="100"
   height="100"
   viewBox="0 0 26.458333 26.458333"
   version="1.1"
   id="svg1"
   xml:space="preserve"
   inkscape:version="1.4.2 (ebf0e940d0, 2025-05-08)"
   sodipodi:docname="sun.svg"
   xmlns:inkscape="http://www.inkscape.org/namespaces/inkscape"
   xmlns:sodipodi="http://sodipodi.sourceforge.net/DTD/sodipodi-0.dtd"
   xmlns="http://www.w3.org/2000/svg"
   xmlns:svg="http://www.w3.org/2000/svg"><sodipodi:namedview
     id="namedview1"
     pagecolor="#ff0000"
     bordercolor="#eeeeee"
     borderopacity="1"
     inkscape:showpageshadow="0"
     inkscape:pageopacity="0"
     inkscape:pagecheckerboard="0"
     inkscape:deskcolor="#505050"
     inkscape:document-units="mm"
     inkscape:zoom="9.57"
     inkscape:cx="43.364681"
     inkscape:cy="49.68652"
     inkscape:window-width="2048"
     inkscape:window-height="1208"
     inkscape:window-x="0"
     inkscape:window-y="0"
     inkscape:window-maximized="1"
     inkscape:current-layer="layer1" /><defs
     id="defs1"><inkscape:path-effect
       effect="mirror_symmetry"
       start_point="13.213449,-0.19161031"
       end_point="13.213449,23.486124"
       center_point="13.213449,11.647257"
       id="path-effect10"
       is_visible="true"
       lpeversion="1.2"
       lpesatellites="#path11"
       mode="vertical"
       discard_orig_path="false"
       fuse_paths="false"
       oposite_fuse="false"
       split_items="true"
       split_open="false"
       link_styles="false" /></defs><g
     inkscape:label="Layer 1"
     inkscape:groupmode="layer"
     id="layer1"><path
       id="path11"
       style="fill:#ffffff;fill-opacity:1;fill-rule:nonzero;stroke-width:0.264583"
       d="M 12.800636 0.96027215 L 11.867877 5.2840392 A 7.4370861 7.4370861 0 0 0 10.630743 5.5486226 L 9.3052424 3.9104797 L 9.3858576 6.0555684 A 7.4370861 7.4370861 0 0 0 8.5678197 6.547528 L 4.5262059 4.3879699 L 6.5658747 8.6083841 A 7.4370861 7.4370861 0 0 0 6.2361791 9.1664896 L 4.1406998 8.9458312 L 5.7142471 10.40569 A 7.4370861 7.4370861 0 0 0 5.4124568 11.809739 L 1.0985082 12.6624 L 5.4222753 13.59516 A 7.4370861 7.4370861 0 0 0 5.6868586 14.832294 L 4.0487157 16.157794 L 6.1938044 16.077179 A 7.4370861 7.4370861 0 0 0 6.6857641 16.895217 L 4.5262059 20.936831 L 8.7466202 18.897162 A 7.4370861 7.4370861 0 0 0 9.3047256 19.226857 L 9.0840673 21.322337 L 10.543926 19.748789 A 7.4370861 7.4370861 0 0 0 11.947975 20.05058 L 12.800636 24.364528 L 13.733396 20.040761 A 7.4370861 7.4370861 0 0 0 14.97053 19.776178 L 16.29603 21.414321 L 16.215415 19.269232 A 7.4370861 7.4370861 0 0 0 17.033453 18.777272 L 21.075067 20.936831 L 19.035398 16.716416 A 7.4370861 7.4370861 0 0 0 19.365093 16.158311 L 21.460573 16.378969 L 19.887025 14.91911 A 7.4370861 7.4370861 0 0 0 20.188816 13.515061 L 24.502764 12.6624 L 20.178997 11.729641 A 7.4370861 7.4370861 0 0 0 19.914414 10.492507 L 21.552557 9.1670064 L 19.407468 9.2476216 A 7.4370861 7.4370861 0 0 0 18.915509 8.4295837 L 21.075067 4.3879699 L 16.854652 6.4276387 A 7.4370861 7.4370861 0 0 0 16.296547 6.0979431 L 16.517205 4.0024637 L 15.057346 5.5760111 A 7.4370861 7.4370861 0 0 0 13.653297 5.2742207 L 12.800636 0.96027215 z M 12.800636 6.1651224 A 6.4970827 6.4970827 0 0 1 19.297914 12.6624 A 6.4970827 6.4970827 0 0 1 12.800636 19.159678 A 6.4970827 6.4970827 0 0 1 6.3033585 12.6624 A 6.4970827 6.4970827 0 0 1 12.800636 6.1651224 z "
       transform="translate(0.42853038,0.56676642)" /><circle
       style="fill:#ffffff;fill-opacity:1;fill-rule:nonzero;stroke-width:0.264583"
       id="circle14"
       cx="13.229167"
       cy="13.229167"
       r="5.916492" /></g></svg>
